img/discount/U2.svg

<svg width="66" height="64" viewBox="0 0 66 64" fill="none" xmlns="http://www.w3.org/2000/svg">
<path opacity="0.4" d="M18.0763 40.9877C18.0763 43.394 18.3663 45.5902 18.9461 47.5762C19.5187 49.5549 20.432 51.251 21.6787 52.6644C22.9253 54.0778 24.5417 55.1577 26.5277 55.9188C28.5136 56.6799 30.9128 57.064 33.7323 57.0568C36.82 57.0568 39.4583 56.6726 41.6617 55.9043C43.8652 55.1433 45.6772 54.0633 47.0978 52.6861L18.0763 40.9877ZM18.0763 40.9877L18.0473 5.51534L18.0763 40.9877ZM49.2738 47.3449C48.6628 49.1643 47.7025 50.7006 46.4001 51.9698C45.0998 53.2297 43.4208 54.2388 41.3353 54.9591L41.3325 54.9601C39.2627 55.6818 36.7417 56.0568 33.7323 56.0568L33.7297 56.0568C30.998 56.0638 28.7274 55.6909 26.8855 54.985C25.0286 54.2734 23.5541 53.2789 22.4286 52.0029C21.2877 50.7094 20.4418 49.1474 19.9067 47.2982L19.906 47.2959C19.3567 45.4144 19.0763 43.3143 19.0763 40.9877V40.9869L19.0481 6.3754L25.7711 5.3589L26.6216 5.23031V4.37014V2.03624V1.03532L25.6207 1.03624L1.99908 1.05799L1 1.05891V2.05798V4.39188V5.25299L1.85157 5.3808L8.58223 6.39105L8.61053 41.6625V41.6629C8.61801 48.3592 10.6315 53.6718 14.7874 57.4418C18.937 61.22 25.0956 63.0073 33.0664 63H33.0671C37.6695 62.9926 41.5481 62.3742 44.656 61.1066C47.7199 59.857 50.1881 58.187 52.015 56.0724C53.8181 53.9854 55.0781 51.5952 55.7908 48.9057C56.4881 46.2816 56.8318 43.5713 56.8318 40.7847V40.7839L56.8035 6.34572L63.5346 5.32254L64.3844 5.19338V4.3339V2V0.99928L63.3836 1L43.2484 1.0145L42.2491 1.01522V2.0145V4.34839V5.21513L43.107 5.33825L50.1792 6.35318L50.2075 41.1399C50.2075 41.1401 50.2075 41.1404 50.2075 41.1407C50.2074 43.4259 49.894 45.4906 49.2738 47.3449Z" stroke="#FFD32E" stroke-width="2"/>
</svg>

<svg width="66" height="64" fill="none" xmlns="http://www.w3.org/2000/svg"><path opacity=".4" d="M18.076 40.988c0 2.406.29 4.602.87 6.588.573 1.979 1.486 3.675 2.733 5.088 1.246 1.414 2.863 2.494 4.849 3.255 1.986.76 4.385 1.145 7.204 1.138 3.088 0 5.726-.384 7.93-1.153 2.203-.76 4.015-1.84 5.436-3.218L18.076 40.988zm0 0l-.029-35.473.03 35.473zm31.198 6.357c-.611 1.82-1.572 3.356-2.874 4.625-1.3 1.26-2.98 2.269-5.065 2.99h-.002c-2.07.722-4.591 1.097-7.6 1.097h-.003c-2.732.007-5.003-.366-6.844-1.072-1.857-.712-3.332-1.706-4.457-2.982-1.141-1.294-1.987-2.856-2.522-4.705l-.001-.002c-.55-1.882-.83-3.982-.83-6.308v-.001l-.028-34.612 6.723-1.016.85-.129V1.036h-1l-23.622.022H1v4.195l.852.128 6.73 1.01.029 35.272v0c.007 6.696 2.02 12.009 6.176 15.779 4.15 3.778 10.309 5.565 18.28 5.558h0c4.602-.007 8.481-.626 11.589-1.893 3.064-1.25 5.532-2.92 7.359-5.035a17.794 17.794 0 003.776-7.166 31.502 31.502 0 001.04-8.121v-.001l-.028-34.438 6.732-1.023.85-.13V1h-1.001l-20.136.014-.999.001v4.2l.858.123 7.072 1.015.029 34.787s0 0 0 0c0 2.286-.314 4.35-.934 6.205z" stroke="#FFD32E" stroke-width="2"/></svg>
